X: 1
T: A' DA SHIPS IR SAILIN'
O: Trad. Shetland
R: reel
Z: 2009 John Chambers <jc:trillian.mit.edu>
B: Tom Anderson "Ringing Strings" 1983 p.84
N: "A nice little tune composed sometime about the first of the century,
N: depicting the herring fleet sailing out to the fishing grounds."
Z: 2009 John Chambers <jc:trillian.mit.edu>
M: C|
L: 1/8
K: G
A \
|: BGBd cAF(A | BG)Bd gde(d | BG)Bd cAFA | (BG)AF G3"fine"z :|
|: GABd g2a2  | gedc  BG3   | BcdB  g2a2 | ge^ce  d2d2 :|
